outputs/icons/enterprise/planogram_round.svg

<svg xmlns="http://www.w3.org/2000/svg" width="1200" height="1200" fill="none"><path fill="#000" d="M250 100h300v250H250zM250 550h300v450H250zM650 550h300v450H650z"/><path fill="#000" d="M1050 1050H150V950h-50v150h1000V950h-50zM950 100H650v250h300z"/><path fill="#000" d="M1050 400V300h50v150H100V300h50v100z"/></svg>

<svg width="1200" height="1200" viewBox="0 0 1200 1200" fill="none" xmlns="http://www.w3.org/2000/svg"><path d="M250 100H550V350H250V100Z" fill="black"/><path d="M250 550H550V1000H250V550Z" fill="black"/><path d="M650 550H950V1000H650V550Z" fill="black"/><path d="M1050 1050H150V950H100V1100H1100V950H1050V1050Z" fill="black"/><path d="M950 100H650V350H950V100Z" fill="black"/><path d="M1050 400V300H1100V450H100V300H150V400H1050Z" fill="black"/></svg>
